X: 24
T:East Neuk of Fife
% Nottingham Music Database
S:Kevin Briggs, via EF
M:4/4
L:1/4
K:G
D|"G"GG GB/2c/2|"G"d/2B/2G/2B/2 d/2B/2G/2B/2|"Am"AA Ag/2f/2|\
"C"ee/2d/2 e/2f/2g/2e/2|
"G"d/2c/2B/2A/2 G/2A/2B/2c/2|"G"d/2B/2G/2B/2 dc/2B/2|\
"D"A/2B/2c/2d/2 B/2c/2A/2B/2|"Em"GE E:||:
d/2c/2|"G"BG Gd/2c/2|"G"BG Ge/2d/2|"C"cA Af/2g/2|"D7"aA AB/2c/2|
"G"dG BG|"C"g/2f/2g/2e/2 "G"dB|"D"A/2B/2c/2d/2 B/2c/2A/2B/2|"Em"GE E:|

